images/EURe.svg

<svg height="250" viewBox="0 0 250 250" width="250" xmlns="http://www.w3.org/2000/svg" xmlns:xlink="http://www.w3.org/1999/xlink"><linearGradient id="a" gradientUnits="userSpaceOnUse" x1="67.11910967797" x2="182.88077013453" y1="24.74608108" y2="225.25379433797"><stop offset="0" stop-color="#0095d7"/><stop offset="1" stop-color="#0072aa"/></linearGradient><path d="m249.511719 125c0 68.765625-55.746094 124.511719-124.511719 124.511719s-124.511719-55.746094-124.511719-124.511719 55.746094-124.511719 124.511719-124.511719 124.511719 55.746094 124.511719 124.511719zm0 0" fill="#fff"/><path d="m240.746094 125c0 63.925781-51.820313 115.746094-115.746094 115.746094s-115.746094-51.820313-115.746094-115.746094 51.820313-115.746094 115.746094-115.746094 115.746094 51.820313 115.746094 115.746094zm0 0" fill="url(#a)"/><path d="m184.757812 164.234375-16.117187-9.277344c-.222656-.128906-.472656-.195312-.730469-.195312-.132812 0-.265625.019531-.394531.054687-.378906.105469-.699219.359375-.890625.707032-1.382812 2.535156-3.105469 4.875-5.117188 6.953124-2.710937 2.804688-5.816406 5.195313-9.222656 7.09375-3.289062 1.824219-6.816406 3.175782-10.480468 4.023438-3.441407.816406-6.96875 1.238281-10.503907 1.257812-6.238281.058594-12.394531-1.402343-17.941406-4.25-5.328125-2.757812-10.050781-6.550781-13.890625-11.15625-1.875-2.265624-3.542969-4.691406-4.980469-7.253906l-1.894531-3.363281h40.90625c.808594 0 1.464844-.65625 1.464844-1.464844v-12.746093c0-.808594-.65625-1.460938-1.464844-1.460938h-45.457031l-.226563-2.015625c-.242187-2.167969-.363281-4.351563-.363281-6.535156 0-1.832031.097656-3.75.292969-5.714844l.203125-2.035156h45.550781c.808594 0 1.464844-.65625 1.464844-1.464844v-12.742187c0-.8125-.65625-1.464844-1.464844-1.464844h-41.34375l1.753906-3.316406c1.242188-2.355469 2.671875-4.601563 4.277344-6.71875 3.636719-4.753907 8.246094-8.679688 13.515625-11.515626 5.441406-2.96875 11.890625-4.476562 19.175781-4.476562 3.460938.015625 6.90625.402344 10.285156 1.152344 3.53125.785156 6.945313 2.027344 10.15625 3.703125 6.007813 3.195312 11.007813 8.007812 14.433594 13.894531.203125.351562.546875.601562.945313.6875.101562.023438.207031.035156.3125.035156.296875 0 .589843-.089844.835937-.257812l14.964844-10.308594c.632812-.4375.824219-1.289062.429688-1.953125-4.433594-7.457031-10.773438-13.699219-18.835938-18.554687-9.132812-5.492188-20.144531-8.300782-32.71875-8.300782-10.667969 0-20.296875 2.011719-28.621094 5.976563-16.054687 7.460937-28.480468 21.003906-34.542968 37.636719-.046876.121093-.085938.246093-.125.367187v.035156c-.039063.125-.082032.253907-.132813.378907l-.535156 1.503906h-31.464844c-.808594 0-1.464844.65625-1.464844 1.464844v12.746093c0 .808594.65625 1.464844 1.464844 1.464844h28.015625l-.160156 2.40625c-.113282 1.734375-.167969 3.179687-.167969 4.539063 0 2.273437.117187 4.582031.34375 6.867187l.242187 2.484375h-28.273437c-.808594 0-1.464844.65625-1.464844 1.464844v12.746094c0 .808593.65625 1.464843 1.464844 1.464843h32.304687l.570313 1.425781c3.199219 8.105469 7.78125 15.601563 13.542969 22.140626 5.921875 6.675781 13.058594 12.167968 21.027344 16.179687 8.03125 4.082031 17.039062 6.152344 26.765624 6.152344 5.753907-.03125 11.480469-.746094 17.0625-2.136719 5.695313-1.375 11.195313-3.460938 16.371094-6.199219 5-2.648437 9.605469-5.992187 13.671875-9.921875 3.101563-2.988281 5.710938-6.449218 7.730469-10.253906.367188-.695312.125-1.558594-.554688-1.953125zm0 0" fill="#fff"/></svg>

<svg xmlns="http://www.w3.org/2000/svg" xmlns:xlink="http://www.w3.org/1999/xlink" width="250px" height="250px" viewBox="0 0 250 250" version="1.1">
<defs>
<linearGradient id="linear0" gradientUnits="userSpaceOnUse" x1="137.460007" y1="50.68" x2="374.540009" y2="461.320007" gradientTransform="matrix(0.488281,0,0,0.488281,0,0)">
<stop offset="0" style="stop-color:rgb(0%,58.431375%,84.313726%);stop-opacity:1;"/>
<stop offset="1" style="stop-color:rgb(0%,44.705883%,66.666669%);stop-opacity:1;"/>
</linearGradient>
</defs>
<g id="surface1">
<path style=" stroke:none;fill-rule:nonzero;fill:rgb(100%,100%,100%);fill-opacity:1;" d="M 249.511719 125 C 249.511719 193.765625 193.765625 249.511719 125 249.511719 C 56.234375 249.511719 0.488281 193.765625 0.488281 125 C 0.488281 56.234375 56.234375 0.488281 125 0.488281 C 193.765625 0.488281 249.511719 56.234375 249.511719 125 Z M 249.511719 125 "/>
<path style=" stroke:none;fill-rule:nonzero;fill:url(#linear0);" d="M 240.746094 125 C 240.746094 188.925781 188.925781 240.746094 125 240.746094 C 61.074219 240.746094 9.253906 188.925781 9.253906 125 C 9.253906 61.074219 61.074219 9.253906 125 9.253906 C 188.925781 9.253906 240.746094 61.074219 240.746094 125 Z M 240.746094 125 "/>
<path style=" stroke:none;fill-rule:nonzero;fill:rgb(100%,100%,100%);fill-opacity:1;" d="M 184.757812 164.234375 L 168.640625 154.957031 C 168.417969 154.828125 168.167969 154.761719 167.910156 154.761719 C 167.777344 154.761719 167.644531 154.78125 167.515625 154.816406 C 167.136719 154.921875 166.816406 155.175781 166.625 155.523438 C 165.242188 158.058594 163.519531 160.398438 161.507812 162.476562 C 158.796875 165.28125 155.691406 167.671875 152.285156 169.570312 C 148.996094 171.394531 145.46875 172.746094 141.804688 173.59375 C 138.363281 174.410156 134.835938 174.832031 131.300781 174.851562 C 125.0625 174.910156 118.90625 173.449219 113.359375 170.601562 C 108.03125 167.84375 103.308594 164.050781 99.46875 159.445312 C 97.59375 157.179688 95.925781 154.753906 94.488281 152.191406 L 92.59375 148.828125 L 133.5 148.828125 C 134.308594 148.828125 134.964844 148.171875 134.964844 147.363281 L 134.964844 134.617188 C 134.964844 133.808594 134.308594 133.15625 133.5 133.15625 L 88.042969 133.15625 L 87.816406 131.140625 C 87.574219 128.972656 87.453125 126.789062 87.453125 124.605469 C 87.453125 122.773438 87.550781 120.855469 87.746094 118.890625 L 87.949219 116.855469 L 133.5 116.855469 C 134.308594 116.855469 134.964844 116.199219 134.964844 115.390625 L 134.964844 102.648438 C 134.964844 101.835938 134.308594 101.183594 133.5 101.183594 L 92.15625 101.183594 L 93.910156 97.867188 C 95.152344 95.511719 96.582031 93.265625 98.1875 91.148438 C 101.824219 86.394531 106.433594 82.46875 111.703125 79.632812 C 117.144531 76.664062 123.59375 75.15625 130.878906 75.15625 C 134.339844 75.171875 137.785156 75.558594 141.164062 76.308594 C 144.695312 77.09375 148.109375 78.335938 151.320312 80.011719 C 157.328125 83.207031 162.328125 88.019531 165.753906 93.90625 C 165.957031 94.257812 166.300781 94.507812 166.699219 94.59375 C 166.800781 94.617188 166.90625 94.628906 167.011719 94.628906 C 167.308594 94.628906 167.601562 94.539062 167.847656 94.371094 L 182.8125 84.0625 C 183.445312 83.625 183.636719 82.773438 183.242188 82.109375 C 178.808594 74.652344 172.46875 68.410156 164.40625 63.554688 C 155.273438 58.0625 144.261719 55.253906 131.6875 55.253906 C 121.019531 55.253906 111.390625 57.265625 103.066406 61.230469 C 87.011719 68.691406 74.585938 82.234375 68.523438 98.867188 C 68.476562 98.988281 68.4375 99.113281 68.398438 99.234375 L 68.398438 99.269531 C 68.359375 99.394531 68.316406 99.523438 68.265625 99.648438 L 67.730469 101.152344 L 36.265625 101.152344 C 35.457031 101.152344 34.800781 101.808594 34.800781 102.617188 L 34.800781 115.363281 C 34.800781 116.171875 35.457031 116.828125 36.265625 116.828125 L 64.28125 116.828125 L 64.121094 119.234375 C 64.007812 120.96875 63.953125 122.414062 63.953125 123.773438 C 63.953125 126.046875 64.070312 128.355469 64.296875 130.640625 L 64.539062 133.125 L 36.265625 133.125 C 35.457031 133.125 34.800781 133.78125 34.800781 134.589844 L 34.800781 147.335938 C 34.800781 148.144531 35.457031 148.800781 36.265625 148.800781 L 68.570312 148.800781 L 69.140625 150.226562 C 72.339844 158.332031 76.921875 165.828125 82.683594 172.367188 C 88.605469 179.042969 95.742188 184.535156 103.710938 188.546875 C 111.742188 192.628906 120.75 194.699219 130.476562 194.699219 C 136.230469 194.667969 141.957031 193.953125 147.539062 192.5625 C 153.234375 191.1875 158.734375 189.101562 163.910156 186.363281 C 168.910156 183.714844 173.515625 180.371094 177.582031 176.441406 C 180.683594 173.453125 183.292969 169.992188 185.3125 166.1875 C 185.679688 165.492188 185.4375 164.628906 184.757812 164.234375 Z M 184.757812 164.234375 "/>
</g>
</svg>
